html/dist/img/text-logo.svg

<svg width="190" height="53" viewBox="0 0 190 53" fill="none" xmlns="http://www.w3.org/2000/svg">
<path d="M19.0237 3.89844C19.3681 3.95733 19.7244 4.00444 20.0687 4.06333C22.8831 4.54622 25.4244 5.65333 27.6806 7.39644C30.4712 9.55177 32.4187 12.3195 33.5112 15.6527C33.9031 16.8422 34.1525 18.0671 34.2475 19.3155C34.6156 23.744 33.44 27.7367 30.7206 31.2582C29.2837 33.1309 27.4906 34.6267 25.4125 35.7573C25.2344 35.8515 25.1156 35.9811 25.0325 36.1578C22.99 40.3978 20.9356 44.6495 18.8812 48.8895C18.8456 48.9602 18.81 49.0309 18.7387 49.0898C18.7387 43.4953 18.7387 37.8891 18.7387 32.2829C19.0712 32.2122 19.4037 32.1651 19.7244 32.0827C24.2131 31.0933 27.7162 27.5129 28.595 23.0138C29.7944 16.8658 25.8519 10.8944 19.7006 9.53999C19.4394 9.50466 19.1662 9.45755 18.8931 9.42222C18.7744 9.41044 18.715 9.35155 18.7269 9.23377C18.7269 9.1631 18.7269 9.10422 18.7269 9.03355C18.7269 7.41999 18.7269 5.79466 18.7269 4.1811C18.7269 4.08688 18.715 3.99266 18.715 3.89844C18.81 3.89844 18.9169 3.89844 19.0237 3.89844Z" fill="#E11F25"/>
<path d="M15.5919 3.89844C15.5919 4.99377 15.5919 6.0891 15.5919 7.18444C15.5919 7.83222 15.5919 8.47999 15.5919 9.12777C15.5919 9.38688 15.5919 9.3751 15.3544 9.42222C13.11 9.78733 11.1269 10.706 9.42879 12.2135C7.43379 13.992 6.16316 16.1827 5.70004 18.8091C5.10629 22.2129 5.87816 25.3104 8.02754 28.0193C9.83254 30.3042 12.2194 31.694 15.0932 32.2358C15.2475 32.2593 15.4019 32.2829 15.5682 32.3182C15.5682 34.132 15.5682 35.934 15.5682 37.7596C15.4375 37.7596 15.3188 37.7713 15.2 37.7596C11.59 37.3238 8.41941 35.934 5.72379 33.5195C2.76691 30.8813 0.950036 27.6071 0.261286 23.7322C0.0356608 22.4955 -0.0355892 21.2471 0.0356608 19.9987C0.249411 16.2651 1.53191 12.932 3.93066 10.0464C6.37691 7.10199 9.50004 5.18222 13.2407 4.29888C13.8938 4.14577 14.5707 4.06333 15.2357 3.95733C15.2832 3.94555 15.3307 3.93377 15.3782 3.91022C15.4494 3.89844 15.5207 3.89844 15.5919 3.89844Z" fill="#7D7D7D"/>
<path d="M48.8419 16.5594C47.975 15.8527 46.6806 15.4758 44.8875 15.4758C43.2606 15.4758 42.0494 15.5936 41.1588 15.7585V28.8789H43.5813V23.838C43.9138 23.9205 44.3056 23.9323 44.7806 23.9323C46.5025 23.9323 48.0106 23.4729 49.0081 22.4954C49.7563 21.7887 50.1481 20.7523 50.1481 19.5038C50.16 18.2554 49.6375 17.1954 48.8419 16.5594ZM44.7806 22.036C44.2819 22.036 43.9019 22.0243 43.5813 21.9183V17.4545C43.8306 17.3838 44.3056 17.3367 44.9944 17.3367C46.6925 17.3367 47.7138 18.1141 47.7138 19.5863C47.7138 21.1292 46.5975 22.036 44.7806 22.036Z" fill="#7D7D7D"/>
<path d="M56.81 19.0447C55.7531 19.0447 54.625 19.7396 54.1381 21.0822H54.0669L53.9719 19.2567H51.87C51.9412 20.1165 51.9531 21.0469 51.9531 22.3542V28.8673H54.3875V23.8853C54.3875 23.6262 54.4231 23.3789 54.4587 23.1433C54.6725 22.0362 55.4919 21.3178 56.6437 21.3178C56.9406 21.3178 57.1544 21.3296 57.3681 21.3885V19.1153C57.1781 19.0565 57.0356 19.0447 56.81 19.0447Z" fill="#7D7D7D"/>
<path d="M63.2462 19.0447C60.325 19.0447 58.235 20.988 58.235 24.1327C58.235 27.242 60.3606 29.0911 63.0919 29.0911C65.55 29.0911 68.0675 27.5247 68.0675 23.9913C68.0794 21.0469 66.1319 19.0447 63.2462 19.0447ZM63.175 27.3362C61.7025 27.3362 60.7644 25.9347 60.7644 24.0738C60.7644 22.472 61.4412 20.7996 63.1869 20.7996C64.8612 20.7996 65.5262 22.5309 65.5262 24.0267C65.5381 25.9936 64.5762 27.3362 63.175 27.3362Z" fill="#7D7D7D"/>
<path d="M79.5387 17.0069C78.3156 15.9823 76.5819 15.4758 74.0762 15.4758C72.6275 15.4758 71.2737 15.5936 70.1812 15.7585V28.8436C70.9887 28.9378 72.0694 29.0203 73.4825 29.0203C76.0831 29.0203 78.2325 28.4078 79.5506 27.1947C80.8331 26.0641 81.6406 24.2974 81.6406 21.9065C81.6525 19.6569 80.8569 18.0552 79.5387 17.0069ZM73.9812 27.0887C73.4825 27.0887 72.9719 27.0887 72.6394 27.0416V17.5016C72.9837 17.4309 73.53 17.3721 74.3019 17.3721C77.3656 17.3721 79.0756 19.0681 79.0637 22.0007C79.0637 25.3692 77.1637 27.1241 73.9812 27.0887Z" fill="#7D7D7D"/>
<path d="M83.7425 19.2566V28.8673H86.2006V19.2566H83.7425ZM84.9775 15.2639C84.1463 15.2639 83.6 15.841 83.6 16.583C83.6 17.2897 84.1344 17.8786 84.9656 17.8786C85.8088 17.8786 86.3431 17.2897 86.3431 16.583C86.3312 15.8292 85.8087 15.2639 84.9775 15.2639Z" fill="#7D7D7D"/>
<path d="M95.57 19.2567L95.475 20.5405H95.4394C94.9762 19.7513 94.1094 19.0447 92.6131 19.0447C90.2856 19.0447 88.2194 20.9527 88.2194 24.1091C88.2194 26.8416 89.9412 28.8202 92.3519 28.8202C93.6462 28.8202 94.6081 28.2431 95.1781 27.3833H95.2137V28.2196C95.2137 30.2925 94.0144 31.1169 92.4231 31.1169C91.2594 31.1169 90.2144 30.74 89.5969 30.3985L89.0625 32.224C89.8937 32.7187 91.2 33.0013 92.4469 33.0013C93.7769 33.0013 95.19 32.7187 96.1756 31.8353C97.185 30.9285 97.6244 29.4798 97.6244 27.4776V22.0245C97.6244 20.7053 97.66 19.9162 97.6956 19.2567H95.57ZM95.1662 24.6745C95.1662 24.9571 95.1544 25.2869 95.0712 25.5107C94.7862 26.394 93.9906 26.9947 93.0762 26.9947C91.5444 26.9947 90.7012 25.6756 90.7012 24.0267C90.7012 22.0833 91.7106 20.9056 93.0881 20.9056C94.1331 20.9056 94.8337 21.5769 95.0831 22.4485C95.1544 22.6487 95.1662 22.8725 95.1662 23.108V24.6745Z" fill="#7D7D7D"/>
<path d="M100.166 19.2566V28.8673H102.624V19.2566H100.166ZM101.413 15.2639C100.605 15.2639 100.035 15.841 100.035 16.583C100.035 17.2897 100.569 17.8786 101.401 17.8786C102.244 17.8786 102.778 17.2897 102.778 16.583C102.754 15.8292 102.244 15.2639 101.413 15.2639Z" fill="#7D7D7D"/>
<path d="M114.712 17.0069C113.489 15.9823 111.779 15.4758 109.274 15.4758C107.813 15.4758 106.471 15.5936 105.379 15.7585V28.8436C106.186 28.9378 107.267 29.0203 108.68 29.0203C111.281 29.0203 113.406 28.4078 114.736 27.1947C116.019 26.0641 116.826 24.2974 116.826 21.9065C116.826 19.6569 116.031 18.0552 114.712 17.0069ZM109.179 27.0887C108.68 27.0887 108.146 27.0887 107.813 27.0416V17.5016C108.181 17.4309 108.704 17.3721 109.487 17.3721C112.551 17.3721 114.261 19.0681 114.237 22.0007C114.237 25.3692 112.361 27.1241 109.179 27.0887Z" fill="#7D7D7D"/>
<path d="M127.158 23.7205C127.158 21.6122 126.124 19.0447 122.977 19.0447C119.878 19.0447 118.251 21.5416 118.251 24.2151C118.251 27.1596 120.092 29.0676 123.251 29.0676C124.64 29.0676 125.792 28.8202 126.635 28.4551L126.267 26.7945C125.519 27.0536 124.723 27.242 123.583 27.242C122.027 27.242 120.662 26.4882 120.591 24.7569H127.074C127.134 24.5213 127.158 24.1798 127.158 23.7205ZM120.591 23.0373C120.686 22.0716 121.339 20.7053 122.847 20.7053C124.474 20.7053 124.866 22.1658 124.854 23.0373H120.591Z" fill="#7D7D7D"/>
<path d="M134.484 19.0447C132.869 19.0447 131.813 19.9516 131.385 20.7053H131.314L131.195 19.2567H129.069C129.105 20.0929 129.141 21.0233 129.141 22.1187V28.8673H131.599V23.2022C131.599 22.9196 131.634 22.6251 131.718 22.4249C131.979 21.7065 132.644 21.0116 133.629 21.0116C134.971 21.0116 135.482 22.0598 135.482 23.426V28.8556H137.916V23.1669C137.916 20.1282 136.171 19.0447 134.484 19.0447Z" fill="#7D7D7D"/>
<path d="M145.564 21.0821V19.2565H143.236V16.7832L140.826 17.4545V19.2448H139.448V21.0703H140.826V25.5812C140.826 26.8532 141.063 27.7365 141.586 28.3019C142.049 28.7848 142.785 29.0792 143.711 29.0792C144.459 29.0792 145.124 28.9614 145.469 28.8319L145.433 26.9945C145.148 27.077 144.923 27.0888 144.471 27.0888C143.545 27.0888 143.224 26.4999 143.224 25.3103V21.0821H145.564Z" fill="#7D7D7D"/>
<path d="M179.799 25.2514C179.764 25.0512 179.728 24.8392 179.728 24.6272V22.9665C179.728 22.7192 179.776 22.4719 179.823 22.2952C180.084 21.1645 181.07 20.3872 182.127 20.3872C183.884 20.3872 184.751 21.8712 184.751 23.6968C184.751 25.7814 183.754 27.0652 182.115 27.0652C180.987 27.0534 180.072 26.2997 179.799 25.2514Z" fill="#E11F25"/>
<path d="M171.796 23.8499V25.2632C171.796 25.4399 171.796 25.6401 171.724 25.8285C171.463 26.5705 170.715 27.2419 169.646 27.2419C168.815 27.2419 168.15 26.7825 168.15 25.7814C168.162 24.215 169.943 23.8381 171.796 23.8499Z" fill="#E11F25"/>
<path d="M179.728 15.2757V19.9986H179.776C180.405 19.0092 181.557 18.3497 183.089 18.3497C185.63 18.3497 187.435 20.4344 187.423 23.5673C187.423 27.2655 185.048 29.091 182.709 29.091C181.367 29.091 180.167 28.5964 179.419 27.3244H179.384L179.253 28.8555H177.009C177.056 28.1606 177.104 27.0299 177.104 25.9581V15.2639H158.507V26.6884H164.397V28.8555H155.883V15.2757H151.323V30.0921H190V15.2757H179.728ZM172.14 28.8673L171.962 27.7366H171.891C171.273 28.5375 170.181 29.1028 168.815 29.1028C166.725 29.1028 165.561 27.607 165.561 26.0406C165.561 23.473 167.889 22.1421 171.712 22.1539V21.989C171.712 21.3177 171.427 20.1988 169.611 20.1988C168.577 20.1988 167.521 20.5168 166.82 20.9526L166.309 19.2566C167.069 18.7973 168.411 18.3497 170.062 18.3497C173.375 18.3497 174.349 20.4344 174.349 22.7075V26.3939C174.349 27.3361 174.384 28.2313 174.515 28.8673H172.14Z" fill="#E11F25"/>
</svg>

<svg width="190" height="53" viewBox="0 0 190 53" fill="none" xmlns="http://www.w3.org/2000/svg"><path d="M19.024 3.898c.344.06.7.106 1.045.165a16.958 16.958 0 017.612 3.333c2.79 2.156 4.738 4.923 5.83 8.257.392 1.19.642 2.414.736 3.662.369 4.429-.807 8.422-3.526 11.943-1.437 1.873-3.23 3.369-5.308 4.5a.832.832 0 00-.38.4c-2.043 4.24-4.097 8.492-6.152 12.731a.567.567 0 01-.142.2V32.284c.332-.07.665-.118.985-.2 4.49-.99 7.992-4.57 8.871-9.07 1.2-6.147-2.743-12.119-8.894-13.473-.262-.035-.535-.082-.808-.118-.119-.012-.178-.07-.166-.188V4.18c0-.094-.012-.188-.012-.283h.309z" fill="#E11F25"/><path d="M15.592 3.898v5.23c0 .259 0 .247-.238.294-2.244.365-4.227 1.284-5.925 2.791-1.995 1.779-3.266 3.97-3.729 6.596-.594 3.404.178 6.501 2.328 9.21 1.805 2.285 4.191 3.675 7.065 4.217.155.023.309.047.475.082v5.442c-.13 0-.25.011-.368 0-3.61-.436-6.78-1.826-9.476-4.24C2.767 30.88.95 27.607.26 23.732A15.79 15.79 0 01.036 20c.213-3.734 1.496-7.067 3.895-9.953C6.377 7.102 9.5 5.182 13.24 4.3c.653-.153 1.33-.236 1.995-.342a.674.674 0 00.142-.047c.071-.012.143-.012.214-.012zm33.25 12.662c-.867-.707-2.161-1.084-3.954-1.084-1.627 0-2.839.118-3.73.282v13.12h2.423v-5.04c.333.082.725.094 1.2.094 1.721 0 3.23-.46 4.227-1.437.748-.706 1.14-1.743 1.14-2.991.012-1.249-.51-2.309-1.306-2.945zm-4.061 5.476c-.5 0-.88-.012-1.2-.118v-4.463c.25-.071.725-.118 1.413-.118 1.699 0 2.72.777 2.72 2.25 0 1.542-1.117 2.449-2.933 2.449zm12.029-2.991c-1.057 0-2.185.695-2.672 2.037h-.071l-.095-1.825H51.87c.071.86.083 1.79.083 3.097v6.513h2.434v-4.982c0-.259.036-.506.072-.742.213-1.107 1.033-1.825 2.185-1.825.297 0 .51.012.724.07v-2.273a1.69 1.69 0 00-.558-.07zm6.436 0c-2.921 0-5.011 1.943-5.011 5.088 0 3.109 2.126 4.958 4.857 4.958 2.458 0 4.975-1.566 4.975-5.1.012-2.944-1.935-4.946-4.82-4.946zm-.071 8.291c-1.472 0-2.41-1.401-2.41-3.262 0-1.602.676-3.274 2.422-3.274 1.674 0 2.34 1.73 2.34 3.227.011 1.967-.95 3.31-2.352 3.31zm16.364-10.329c-1.223-1.025-2.957-1.531-5.463-1.531a26.64 26.64 0 00-3.895.282v13.086c.808.094 1.888.176 3.302.176 2.6 0 4.75-.612 6.068-1.825 1.282-1.13 2.09-2.898 2.09-5.288.011-2.25-.784-3.852-2.102-4.9zM73.98 27.089c-.498 0-1.01 0-1.342-.047v-9.54c.345-.071.891-.13 1.663-.13 3.064 0 4.774 1.696 4.762 4.629 0 3.368-1.9 5.123-5.083 5.088zm9.763-7.832v9.61H86.2v-9.61h-2.458zm1.235-3.993c-.832 0-1.378.577-1.378 1.319 0 .707.534 1.296 1.366 1.296.843 0 1.377-.59 1.377-1.296-.012-.754-.534-1.32-1.365-1.32zm10.592 3.993l-.095 1.284h-.036c-.463-.79-1.33-1.496-2.826-1.496-2.327 0-4.394 1.908-4.394 5.064 0 2.733 1.722 4.711 4.133 4.711 1.294 0 2.256-.577 2.826-1.437h.036v.837c0 2.073-1.2 2.897-2.79 2.897a6.098 6.098 0 01-2.827-.719l-.534 1.826c.83.495 2.137.777 3.384.777 1.33 0 2.743-.282 3.729-1.166 1.009-.907 1.448-2.355 1.448-4.357v-5.454c0-1.319.036-2.108.072-2.767H95.57zm-.404 5.417c0 .283-.012.613-.095.837-.285.883-1.08 1.484-1.995 1.484-1.532 0-2.375-1.32-2.375-2.968 0-1.944 1.01-3.121 2.387-3.121 1.045 0 1.746.67 1.995 1.543.071.2.083.423.083.659v1.566zm5-5.417v9.61h2.458v-9.61h-2.458zm1.247-3.993c-.808 0-1.378.577-1.378 1.319 0 .707.534 1.296 1.366 1.296.843 0 1.377-.59 1.377-1.296-.024-.754-.534-1.32-1.365-1.32zm13.299 1.743c-1.223-1.025-2.933-1.531-5.438-1.531-1.461 0-2.803.118-3.895.282v13.086c.807.094 1.888.176 3.301.176 2.601 0 4.726-.612 6.056-1.825 1.283-1.13 2.09-2.898 2.09-5.288 0-2.25-.795-3.852-2.114-4.9zm-5.533 10.082c-.499 0-1.033 0-1.366-.047v-9.54c.368-.071.891-.13 1.674-.13 3.064 0 4.774 1.696 4.75 4.629 0 3.368-1.876 5.123-5.058 5.088zm17.979-3.369c0-2.108-1.034-4.675-4.181-4.675-3.099 0-4.726 2.497-4.726 5.17 0 2.945 1.841 4.853 5 4.853 1.389 0 2.541-.248 3.384-.613l-.368-1.66a7.703 7.703 0 01-2.684.447c-1.556 0-2.921-.754-2.992-2.485h6.483c.06-.236.084-.577.084-1.037zm-6.567-.683c.095-.965.748-2.332 2.256-2.332 1.627 0 2.019 1.46 2.007 2.332h-4.263zm13.893-3.992c-1.615 0-2.671.907-3.099 1.66h-.071l-.119-1.448h-2.126c.036.836.072 1.766.072 2.862v6.748h2.458v-5.665c0-.282.035-.577.119-.777.261-.719.926-1.413 1.911-1.413 1.342 0 1.853 1.048 1.853 2.414v5.43h2.434v-5.69c0-3.038-1.745-4.121-3.432-4.121zm11.08 2.037v-1.826h-2.328v-2.473l-2.41.671v1.79h-1.378v1.826h1.378v4.511c0 1.272.237 2.155.76 2.72.463.484 1.199.778 2.125.778.748 0 1.413-.118 1.758-.247l-.036-1.838c-.285.083-.51.095-.962.095-.926 0-1.247-.59-1.247-1.779v-4.228h2.34z" fill="#7D7D7D"/><path d="M179.799 25.251a3.65 3.65 0 01-.071-.624v-1.66c0-.248.048-.495.095-.672.261-1.13 1.247-1.908 2.304-1.908 1.757 0 2.624 1.484 2.624 3.31 0 2.084-.997 3.368-2.636 3.368a2.4 2.4 0 01-2.316-1.814zm-8.003-1.401v1.413c0 .177 0 .377-.072.565-.261.742-1.009 1.414-2.078 1.414-.831 0-1.496-.46-1.496-1.46.012-1.567 1.793-1.944 3.646-1.932z" fill="#E11F25"/><path d="M179.728 15.276v4.723h.048c.629-.99 1.781-1.65 3.313-1.65 2.541 0 4.346 2.085 4.334 5.218 0 3.698-2.375 5.524-4.714 5.524-1.342 0-2.542-.495-3.29-1.767h-.035l-.131 1.531h-2.244a46.74 46.74 0 00.095-2.897V15.264h-18.597v11.424h5.89v2.168h-8.514v-13.58h-4.56v14.816H190V15.276h-10.272zm-7.588 13.591l-.178-1.13h-.071c-.618.8-1.71 1.366-3.076 1.366-2.09 0-3.254-1.496-3.254-3.062 0-2.568 2.328-3.899 6.151-3.887v-.165c0-.671-.285-1.79-2.101-1.79-1.034 0-2.09.318-2.791.754l-.511-1.696c.76-.46 2.102-.907 3.753-.907 3.313 0 4.287 2.084 4.287 4.357v3.687c0 .942.035 1.837.166 2.473h-2.375z" fill="#E11F25"/></svg>
